X:1
T:Chanson Russ\'e
T:Chanson Russ\'e
T:Russian song (Theme from Op. 107 no. 3)
T:Ludwig van Beethoven
C:Ludwig van Beethoven
%%score 1 2
L:1/8
M:2/4
K:G
V:1 treble 
V:2 bass 
V:1
 Bddd | Bddd | ecAc | cB B2 | Bddd | Bddd | ecAF | AG G2 :: g2 g>f | fe e2 | dedc | cB B2 | %12
 g2 g>f | fe e2 | ddef | a>g g2 :| %16
V:2
 G,2 F,2 | G,2 B,,2 | C,2 D,2 | G,,2 D,2 | G,2 F,2 | G,2 B,,2 | C,2 D,2 | G,,4 :: B,,2 G,,2 | %9
 C,2 A,,2 | D,2 F,2 | G,2 D,2 | B,,2 G,,2 | C,2 A,,2 | D,2 D,,2 | G,,4 :| %16

